Hatter-kde/actions/24/xml-node-duplicate-symbolic.svg

<?xml version="1.0" encoding="UTF-8" standalone="no"?>
<svg
   width="24"
   height="24"
   version="1.1"
   id="svg8765"
   sodipodi:docname="xml-node-duplicate-symbolic.svg"
   inkscape:version="1.2.2 (b0a8486541, 2022-12-01)"
   xmlns:inkscape="http://www.inkscape.org/namespaces/inkscape"
   xmlns:sodipodi="http://sodipodi.sourceforge.net/DTD/sodipodi-0.dtd"
   xmlns="http://www.w3.org/2000/svg"
   xmlns:svg="http://www.w3.org/2000/svg">
  <defs
     id="defs8769" />
  <sodipodi:namedview
     id="namedview8767"
     pagecolor="#ffffff"
     bordercolor="#666666"
     borderopacity="1.0"
     inkscape:showpageshadow="2"
     inkscape:pageopacity="0.0"
     inkscape:pagecheckerboard="0"
     inkscape:deskcolor="#d1d1d1"
     showgrid="true"
     inkscape:zoom="13.906433"
     inkscape:cx="10.175147"
     inkscape:cy="5.249369"
     inkscape:window-width="1920"
     inkscape:window-height="1014"
     inkscape:window-x="0"
     inkscape:window-y="32"
     inkscape:window-maximized="1"
     inkscape:current-layer="svg8765">
    <inkscape:grid
       type="xygrid"
       id="grid8771" />
  </sodipodi:namedview>
  <path
     id="rect8773"
     style="fill:#363636;fill-rule:evenodd;stroke-width:2;stroke-linecap:square;stop-color:#000000"
     d="M 10.863281 9 C 9.8308595 9 9 9.8308595 9 10.863281 L 9 18.136719 C 9 19.169141 9.8308595 20 10.863281 20 L 18.136719 20 C 19.169141 20 20 19.169141 20 18.136719 L 20 10.863281 C 20 9.8308595 19.169141 9 18.136719 9 L 10.863281 9 z M 11 10 L 18 10 C 18.553999 10 19 10.446001 19 11 L 19 18 C 19 18.553999 18.553999 19 18 19 L 11 19 C 10.446001 19 10 18.553999 10 18 L 10 11 C 10 10.446001 10.446001 10 11 10 z " />
  <rect
     style="fill:#363636;fill-rule:evenodd;stroke-width:2;stroke-linecap:square;stop-color:#000000"
     id="rect8778"
     width="1"
     height="7"
     x="14"
     y="11"
     rx="0"
     ry="0" />
  <rect
     style="fill:#363636;fill-rule:evenodd;stroke-width:2;stroke-linecap:square;stop-color:#000000"
     id="rect8780"
     width="7"
     height="1"
     x="11"
     y="14" />
  <path
     id="path8782"
     style="fill:#363636;fill-rule:evenodd;stroke-width:2;stroke-linecap:square;stop-color:#000000"
     d="M 5.8632812 4 C 4.8308608 4 4 4.8308608 4 5.8632812 L 4 13.136719 C 4 14.16914 4.8308608 15 5.8632812 15 L 8 15 L 8 14 L 6 14 C 5.4460016 14 5 13.553998 5 13 L 5 6 C 5 5.4460016 5.4460016 5 6 5 L 13 5 C 13.553998 5 14 5.4460016 14 6 L 14 8 L 15 8 L 15 5.8632812 C 15 4.8308608 14.16914 4 13.136719 4 L 5.8632812 4 z " />
</svg>

<?xml version="1.0" encoding="UTF-8"?>
<svg id="svg8765" width="24" height="24" version="1.1" xmlns="http://www.w3.org/2000/svg">
 <path id="rect8773" d="m10.863 9c-1.0324 0-1.8633 0.83086-1.8633 1.8633v7.2734c0 1.0324 0.83086 1.8633 1.8633 1.8633h7.2734c1.0324 0 1.8633-0.83086 1.8633-1.8633v-7.2734c0-1.0324-0.83086-1.8633-1.8633-1.8633h-7.2734zm0.13672 1h7c0.554 0 1 0.446 1 1v7c0 0.554-0.446 1-1 1h-7c-0.554 0-1-0.446-1-1v-7c0-0.554 0.446-1 1-1z" fill="#363636" fill-rule="evenodd" stop-color="#000000" stroke-linecap="square" stroke-width="2"/>
 <rect id="rect8778" x="14" y="11" width="1" height="7" rx="0" ry="0" fill="#363636" fill-rule="evenodd" stop-color="#000000" stroke-linecap="square" stroke-width="2"/>
 <rect id="rect8780" x="11" y="14" width="7" height="1" fill="#363636" fill-rule="evenodd" stop-color="#000000" stroke-linecap="square" stroke-width="2"/>
 <path id="path8782" d="m5.8633 4c-1.0324 0-1.8633 0.83086-1.8633 1.8633v7.2734c0 1.0324 0.83086 1.8633 1.8633 1.8633h2.1367v-1h-2c-0.554 0-1-0.446-1-1v-7c0-0.554 0.446-1 1-1h7c0.554 0 1 0.446 1 1v2h1v-2.1367c0-1.0324-0.83086-1.8633-1.8633-1.8633h-7.2734z" fill="#363636" fill-rule="evenodd" stop-color="#000000" stroke-linecap="square" stroke-width="2"/>
</svg>
